X:26
T: Graf und Nonne (Die Nonne)
N: Q0155Y
O: Mitteleuropa, Schweiz, Basel - Land
R: Ballade, Standesunterschied, vergebliche Werbung, Liebe, Klage
M: 4/4
L: 1/8
K: F
C2 | F2c2cAAc | A4A2
C2 | F2F2Bddf | f4z2
C2 | F2c2cAAc | A4A2
c2 | A2F2G2E2 | F4z2
c2 | A2F2G2E2 | F4z2

@@@ Tune index: 1736
